src/images/brand-icon-reddit.svg

<?xml version="1.0" encoding="UTF-8"?>
<!DOCTYPE svg  PUBLIC '-//W3C//DTD SVG 1.1//EN'  'http://www.w3.org/Graphics/SVG/1.1/DTD/svg11.dtd'>
<svg version="1.1" viewBox="0 0 117 117" xml:space="preserve" xmlns="http://www.w3.org/2000/svg">
    <g transform="translate(-853.16 -11516)">
        <g transform="matrix(1 0 0 9.2051 0 1353.8)">
            <g transform="matrix(5.8406 0 0 .6345 841.48 1102.7)">
                <path d="m12 22c-5.523 0-10-4.477-10-10s4.477-10 10-10 10 4.477 10 10-4.477 10-10 10zm6.67-10c-0.029-0.78-0.678-1.407-1.459-1.407-0.377 0-0.739 0.146-1.011 0.407-1.137-0.773-2.475-1.201-3.85-1.23l0.65-3.12 2.14 0.45c0.054 0.505 0.486 0.893 0.994 0.893 0.549 0 1-0.451 1-1s-0.451-1-1-1c-0.355 0-0.685 0.19-0.864 0.497l-2.45-0.49c-0.022-5e-3 -0.044-7e-3 -0.066-7e-3 -0.147 0-0.274 0.104-0.304 0.247l-0.74 3.47c-1.392 0.021-2.748 0.449-3.9 1.23-0.271-0.255-0.629-0.397-1-0.397-0.801 0-1.46 0.659-1.46 1.46 0 0.57 0.333 1.089 0.85 1.327-0.011 0.146-0.011 0.294 0 0.44 0 2.24 2.61 4.06 5.83 4.06s5.83-1.82 5.83-4.06c0.011-0.146 0.011-0.294 0-0.44 0.503-0.25 0.819-0.769 0.81-1.33zm-10 1c0-0.549 0.451-1 1-1s1 0.451 1 1-0.451 1-1 1-1-0.451-1-1zm5.81 2.75c-0.709 0.535-1.583 0.807-2.47 0.77-0.887 0.037-1.761-0.235-2.47-0.77-0.04-0.048-0.061-0.109-0.061-0.171 0-0.148 0.122-0.27 0.27-0.27 0.062 0 0.123 0.021 0.171 0.061 0.601 0.441 1.335 0.663 2.08 0.63 0.746 0.041 1.483-0.175 2.09-0.61 0.053-0.059 0.129-0.094 0.209-0.094 0.153 0 0.28 0.127 0.28 0.28 0 0.083-0.036 0.161-0.099 0.214v-0.04zm-0.18-1.71c-0.549 0-1-0.451-1-1s0.451-1 1-1 1 0.451 1 1c1e-3 0.013 1e-3 0.027 1e-3 0.04 0 0.549-0.452 1-1 1h-0.011l0.01-0.04z"/>
            </g>
        </g>
    </g>
</svg>

<?xml version="1.0" encoding="UTF-8" standalone="no"?>
<!DOCTYPE svg PUBLIC "-//W3C//DTD SVG 1.1//EN" "http://www.w3.org/Graphics/SVG/1.1/DTD/svg11.dtd">
<svg width="100%" height="100%" viewBox="0 0 117 117" version="1.1" xmlns="http://www.w3.org/2000/svg" xmlns:xlink="http://www.w3.org/1999/xlink" xml:space="preserve" >
    <g transform="matrix(1,0,0,1,-853.161,-11515.8)">
        <g transform="matrix(1,0,0,9.20507,0,1353.83)">
            <g transform="matrix(5.84064,0,0,0.634502,841.48,1102.69)">
                <path d="M12,22C6.477,22 2,17.523 2,12C2,6.477 6.477,2 12,2C17.523,2 22,6.477 22,12C22,17.523 17.523,22 12,22ZM18.67,12C18.641,11.22 17.992,10.593 17.211,10.593C16.834,10.593 16.472,10.739 16.2,11C15.063,10.227 13.725,9.799 12.35,9.77L13,6.65L15.14,7.1C15.194,7.605 15.626,7.993 16.134,7.993C16.683,7.993 17.134,7.542 17.134,6.993C17.134,6.444 16.683,5.993 16.134,5.993C15.779,5.993 15.449,6.183 15.27,6.49L12.82,6C12.798,5.995 12.776,5.993 12.754,5.993C12.607,5.993 12.48,6.097 12.45,6.24L11.71,9.71C10.318,9.731 8.962,10.159 7.81,10.94C7.539,10.685 7.181,10.543 6.81,10.543C6.009,10.543 5.35,11.202 5.35,12.003C5.35,12.573 5.683,13.092 6.2,13.33C6.189,13.476 6.189,13.624 6.2,13.77C6.2,16.01 8.81,17.83 12.03,17.83C15.25,17.83 17.86,16.01 17.86,13.77C17.871,13.624 17.871,13.476 17.86,13.33C18.363,13.08 18.679,12.561 18.67,12ZM8.67,13C8.67,12.451 9.121,12 9.67,12C10.219,12 10.67,12.451 10.67,13C10.67,13.549 10.219,14 9.67,14C9.121,14 8.67,13.549 8.67,13ZM14.48,15.75C13.771,16.285 12.897,16.557 12.01,16.52C11.123,16.557 10.249,16.285 9.54,15.75C9.5,15.702 9.479,15.641 9.479,15.579C9.479,15.431 9.601,15.309 9.749,15.309C9.811,15.309 9.872,15.33 9.92,15.37C10.521,15.811 11.255,16.033 12,16C12.746,16.041 13.483,15.825 14.09,15.39C14.143,15.331 14.219,15.296 14.299,15.296C14.452,15.296 14.579,15.423 14.579,15.576C14.579,15.659 14.543,15.737 14.48,15.79L14.48,15.75ZM14.3,14.04C13.751,14.04 13.3,13.589 13.3,13.04C13.3,12.491 13.751,12.04 14.3,12.04C14.849,12.04 15.3,12.491 15.3,13.04C15.301,13.053 15.301,13.067 15.301,13.08C15.301,13.629 14.849,14.08 14.301,14.08C14.297,14.08 14.294,14.08 14.29,14.08L14.3,14.04Z"/>
            </g>
        </g>
    </g>
</svg>
